img/part6/8/步驟2_合約洽談_icon.svg

<svg width="36" height="36" viewBox="0 0 36 36" fill="none" xmlns="http://www.w3.org/2000/svg"><path d="M0.757926 32.8822C0.645331 33.21 0.627386 33.5628 0.706149 33.9003C0.784912 34.2377 0.957195 34.5462 1.20324 34.7902L1.2097 34.7967C1.3809 34.9692 1.58453 35.1061 1.80886 35.1997C2.03319 35.2932 2.27379 35.3414 2.51684 35.3416C2.72133 35.3415 2.92443 35.3078 3.11801 35.2419C10.0474 32.8816 16.3446 28.9666 21.5272 23.7968L33.8814 11.4423C34.4962 10.8306 34.9843 10.1037 35.3177 9.30312C35.6512 8.50254 35.8234 7.64405 35.8245 6.77681C35.8256 5.90957 35.6556 5.05063 35.3243 4.2492C34.9929 3.44776 34.5067 2.71957 33.8934 2.10634C33.2802 1.49311 32.552 1.00689 31.7506 0.675527C30.9491 0.344167 30.0902 0.174178 29.223 0.175298C28.3557 0.176419 27.4972 0.348625 26.6967 0.682055C25.8961 1.01548 25.1691 1.50358 24.5575 2.1184L23.8499 2.826L22.3068 1.28292C21.6053 0.581466 20.6539 0.1874 19.6619 0.1874C18.6699 0.1874 17.7185 0.581466 17.017 1.28292L7.06659 11.2333L8.74587 12.9126L18.6963 2.96226C18.9524 2.70622 19.2997 2.56238 19.6618 2.56238C20.024 2.56238 20.3713 2.70622 20.6274 2.96226L22.1706 4.50535L12.203 14.4729C7.03318 19.6556 3.1182 25.9528 0.757926 32.8822ZM26.2372 3.79774C26.6289 3.40606 27.0939 3.09537 27.6056 2.88339C28.1174 2.67142 28.6659 2.56231 29.2198 2.56231C29.7737 2.56231 30.3222 2.67142 30.834 2.88339C31.3457 3.09537 31.8107 3.40606 32.2024 3.79774C32.5941 4.18942 32.9048 4.65442 33.1168 5.16617C33.3287 5.67792 33.4378 6.22642 33.4378 6.78034C33.4378 7.33425 33.3287 7.88275 33.1168 8.3945C32.9048 8.90626 32.5941 9.37125 32.2024 9.76293L25.5603 16.405L19.5952 10.4398L26.2372 3.79774ZM17.9155 12.1192L23.8806 18.0843L19.8474 22.1175C15.1779 26.775 9.55358 30.3641 3.36248 32.6373C5.63567 26.4462 9.22481 20.8219 13.8823 16.1523L17.9155 12.1192Z" fill="#F1F1F1"></path></svg>

<svg width="36" height="36" fill="none" xmlns="http://www.w3.org/2000/svg"><path d="M.758 32.882a1.844 1.844 0 0 0 .445 1.908l.007.007a1.845 1.845 0 0 0 1.908.445 47.965 47.965 0 0 0 18.41-11.445L33.88 11.442a6.593 6.593 0 1 0-9.323-9.324l-.708.708-1.543-1.543a3.74 3.74 0 0 0-5.29 0l-9.95 9.95 1.679 1.68 9.95-9.95a1.366 1.366 0 0 1 1.931 0l1.544 1.542-9.968 9.968A47.966 47.966 0 0 0 .758 32.883Zm25.48-29.084a4.219 4.219 0 0 1 5.964 5.965l-6.642 6.642-5.965-5.965 6.642-6.642Zm-8.322 8.321 5.965 5.965-4.034 4.034a45.598 45.598 0 0 1-16.485 10.52 45.6 45.6 0 0 1 10.52-16.486l4.034-4.033Z" fill="#F1F1F1"/></svg>
